assets/illustrations/big-path.svg

<svg width="1529" height="4074" fill="none" xmlns="http://www.w3.org/2000/svg"><path d="M379.784 78c-106.502-6.4 48.521-54.667 139.345-78h5.18C431 31.5 404.072 39.5 402 41c-63.5 27.5-57.327 8.5 81.5 32.5 111.061 19.2 159.946 42 161.5 49 2.245 6.667-25.792 26.7-79.25 33.5-169.078 22.8-218.6 42.5-222.226 49.5-20.03 7-2.797 27.3 226.37 52.5s272.646 63.167 265.739 79c-7.943 22.833-105.674 83.1-433.056 141.5-417.516 49 135.2 127 386.435 176.5C990 694.6 914.543 774.833 851.691 810 746.708 852.333 474.5 911.5 278.255 975c-248.576 80.43 205.131 129.5 579.134 221 299.201 73.2 268.331 160.5 215.491 195-68.89 37.67-293.71 121.3-641.813 154.5C82.965 1578.7 563.5 1738 846 1829.5c172.67 67.33 469.41 240.7 229.47 395.5-239.941 154.8-479.848 444.83-569.809 570.5C380.924 3023.9 1238 3592.5 1678 3882c257.2 226.8 940.17 688.17 1249.5 890.5H1632c-239.6-97.2-811.5-624.5-1067.5-876-203.405-160.5-414.14-525.5-532-761-120.478-240.73 125.922-441.33 245.754-532 95.487-89.83 349.139-301 599.856-427 250.72-126 8.46-232.17-144.007-269.5-118.106-34.5-401.354-129-589.495-231-188.14-102 63.197-166.5 212.384-186 59.916-5.33 236.419-31.2 463.1-92 226.678-60.8 73.731-137-31.08-167.5-84.608-27.67-257.189-59-612.012-133.5-354.823-74.5 97.569-185.5 202.784-205C485 872.5 722.534 812.333 820.092 769 938.717 677.5 578.7 657 272.556 581c-296.82-110.5 280.243-127 444.452-205.5S617.033 303 402.577 251 453.86 171 578.7 147.5C703.54 124 512.913 86 379.784 78Z" fill="#A2976B"/></svg>

<svg width="1529" height="4074" viewBox="0 0 1529 4074" fill="none" xmlns="http://www.w3.org/2000/svg">
<path d="M379.784 78C273.282 71.6 428.305 23.3333 519.129 0H524.309C431 31.5 404.072 39.5 402 41C338.5 68.5 344.673 49.5 483.5 73.5C594.561 92.7 643.446 115.5 645 122.5C647.245 129.167 619.208 149.2 565.75 156C396.672 178.8 347.15 198.5 343.524 205.5C323.494 212.5 340.727 232.8 569.894 258C799.061 283.2 842.54 321.167 835.633 337C827.69 359.833 729.959 420.1 402.577 478.5C-14.9387 527.5 537.777 605.5 789.012 655C990 694.6 914.543 774.833 851.691 810C746.708 852.333 474.5 911.5 278.255 975C29.6788 1055.43 483.386 1104.5 857.389 1196C1156.59 1269.2 1125.72 1356.5 1072.88 1391C1003.99 1428.67 779.17 1512.3 431.067 1545.5C82.965 1578.7 563.5 1738 846 1829.5C1018.67 1896.83 1315.41 2070.2 1075.47 2225C835.529 2379.8 595.622 2669.83 505.661 2795.5C380.924 3023.9 1238 3592.5 1678 3882C1935.2 4108.8 2618.17 4570.17 2927.5 4772.5H1632C1392.4 4675.3 820.5 4148 564.5 3896.5C361.095 3736 150.36 3371 32.4999 3135.5C-87.978 2894.77 158.422 2694.17 278.254 2603.5C373.741 2513.67 627.393 2302.5 878.11 2176.5C1128.83 2050.5 886.57 1944.33 734.103 1907C615.997 1872.5 332.749 1778 144.608 1676C-43.5329 1574 207.805 1509.5 356.992 1490C416.908 1484.67 593.411 1458.8 820.092 1398C1046.77 1337.2 893.823 1261 789.012 1230.5C704.404 1202.83 531.823 1171.5 177 1097C-177.823 1022.5 274.569 911.5 379.784 892C485 872.5 722.534 812.333 820.092 769C938.717 677.5 578.7 657 272.556 581C-24.2634 470.5 552.799 454 717.008 375.5C881.217 297 617.033 303 402.577 251C188.121 199 453.86 171 578.7 147.5C703.54 124 512.913 86 379.784 78Z" fill="#A2976B"/>
</svg>
